X:2
T:untitled
B:Green and Gold, Steve MacDonogh, Brandon, 1983
N:a Dingle Wren tune, variant of the Scottish "Lass of Gowrie"
N:transposed from Eb
Z:Paul de Grae <sullgrae@IOL.IE> irtrad-l 2001-12-20
M:2/4
L:1/8
K:G
B/A/ | GD B,D | ED DB/A/ | GD B,D | EA AB/A/ |
GD B,D | ED D2 | G/A/G/E/ D/E/G/A/ | BG G :: B/c/ |
d>B cA | BG GB/c/ | d>B cd | eA AB/c/ |
d>B cA | B/A/G/A/ B>A | G/A/G/E/ D/E/G/A/ | BG G :|
